static/name2.svg

<svg fill="none" height="106" viewBox="0 0 260 106" width="260" xmlns="http://www.w3.org/2000/svg"><g stroke="#fff" stroke-width="2"><path d="m71.992 85.816v17.424h-70.992v-102.24h69.696v17.424h-49.824v24.624h43.056v16.128h-43.056v26.64z"/><path d="m117.085 104.68c-6.144 0-11.664-1.056-16.56-3.168-4.8956-2.112-9.0716-4.944-12.5276-8.496-3.36-3.648-5.952-7.824-7.776-12.528s-2.736-9.648-2.736-14.832c0-5.28.912-10.272 2.736-14.976s4.416-8.832 7.776-12.384c3.456-3.648 7.632-6.528 12.5276-8.64 4.896-2.112 10.416-3.168 16.56-3.168s11.616 1.056 16.416 3.168c4.896 2.112 9.024 4.992 12.384 8.64 3.456 3.552 6.096 7.68 7.92 12.384s2.736 9.696 2.736 14.976c0 5.184-.912 10.128-2.736 14.832s-4.416 8.88-7.776 12.528c-3.36 3.552-7.488 6.384-12.384 8.496s-10.416 3.168-16.56 3.168zm-19.7276-39.024c0 3.36.48 6.432 1.44 9.216 1.056 2.688 2.4476 5.04 4.1756 7.056 1.824 2.016 3.936 3.6 6.336 4.752 2.4 1.056 4.992 1.584 7.776 1.584s5.376-.528 7.776-1.584c2.4-1.152 4.464-2.736 6.192-4.752 1.824-2.016 3.216-4.416 4.176-7.2 1.056-2.784 1.584-5.856 1.584-9.216 0-3.264-.528-6.288-1.584-9.072-.96-2.784-2.352-5.184-4.176-7.2-1.728-2.016-3.792-3.552-6.192-4.608-2.4-1.152-4.992-1.728-7.776-1.728s-5.376.576-7.776 1.728-4.512 2.736-6.336 4.752c-1.728 2.016-3.1196 4.416-4.1756 7.2-.96 2.784-1.44 5.808-1.44 9.072z"/><path d="m170.453 103.24v-102.24h37.152c8.352 0 15.648 1.344 21.888 4.032 6.336 2.688 11.616 6.336 15.84 10.944s7.392 10.032 9.504 16.272c2.112 6.144 3.168 12.72 3.168 19.728 0 7.776-1.2 14.832-3.6 21.168-2.304 6.24-5.664 11.616-10.08 16.128-4.416 4.416-9.744 7.872-15.984 10.368-6.144 2.4-13.056 3.6-20.736 3.6zm67.536-51.264c0-4.896-.672-9.408-2.016-13.536s-3.312-7.68-5.904-10.656-5.808-5.28-9.648-6.912c-3.744-1.632-8.016-2.448-12.816-2.448h-17.28v67.392h17.28c4.896 0 9.216-.864 12.96-2.592 3.84-1.728 7.008-4.08 9.504-7.056 2.592-3.072 4.56-6.672 5.904-10.8s2.016-8.592 2.016-13.392z"/></g></svg>

<svg width="260" height="106" viewBox="0 0 260 106" fill="none" xmlns="http://www.w3.org/2000/svg">
<path d="M71.992 85.816V103.24H1V1H70.696V18.424H20.872V43.048H63.928V59.176H20.872V85.816H71.992Z" stroke="white" stroke-width="2"/>
<path d="M117.085 104.68C110.941 104.68 105.421 103.624 100.525 101.512C95.6294 99.4 91.4534 96.568 87.9974 93.016C84.6374 89.368 82.0454 85.192 80.2214 80.488C78.3974 75.784 77.4854 70.84 77.4854 65.656C77.4854 60.376 78.3974 55.384 80.2214 50.68C82.0454 45.976 84.6374 41.848 87.9974 38.296C91.4534 34.648 95.6294 31.768 100.525 29.656C105.421 27.544 110.941 26.488 117.085 26.488C123.229 26.488 128.701 27.544 133.501 29.656C138.397 31.768 142.525 34.648 145.885 38.296C149.341 41.848 151.981 45.976 153.805 50.68C155.629 55.384 156.541 60.376 156.541 65.656C156.541 70.84 155.629 75.784 153.805 80.488C151.981 85.192 149.389 89.368 146.029 93.016C142.669 96.568 138.541 99.4 133.645 101.512C128.749 103.624 123.229 104.68 117.085 104.68ZM97.3574 65.656C97.3574 69.016 97.8374 72.088 98.7974 74.872C99.8534 77.56 101.245 79.912 102.973 81.928C104.797 83.944 106.909 85.528 109.309 86.68C111.709 87.736 114.301 88.264 117.085 88.264C119.869 88.264 122.461 87.736 124.861 86.68C127.261 85.528 129.325 83.944 131.053 81.928C132.877 79.912 134.269 77.512 135.229 74.728C136.285 71.944 136.813 68.872 136.813 65.512C136.813 62.248 136.285 59.224 135.229 56.44C134.269 53.656 132.877 51.256 131.053 49.24C129.325 47.224 127.261 45.688 124.861 44.632C122.461 43.48 119.869 42.904 117.085 42.904C114.301 42.904 111.709 43.48 109.309 44.632C106.909 45.784 104.797 47.368 102.973 49.384C101.245 51.4 99.8534 53.8 98.7974 56.584C97.8374 59.368 97.3574 62.392 97.3574 65.656Z" stroke="white" stroke-width="2"/>
<path d="M170.453 103.24V1H207.605C215.957 1 223.253 2.344 229.493 5.032C235.829 7.72 241.109 11.368 245.333 15.976C249.557 20.584 252.725 26.008 254.837 32.248C256.949 38.392 258.005 44.968 258.005 51.976C258.005 59.752 256.805 66.808 254.405 73.144C252.101 79.384 248.741 84.76 244.325 89.272C239.909 93.688 234.581 97.144 228.341 99.64C222.197 102.04 215.285 103.24 207.605 103.24H170.453ZM237.989 51.976C237.989 47.08 237.317 42.568 235.973 38.44C234.629 34.312 232.661 30.76 230.069 27.784C227.477 24.808 224.261 22.504 220.421 20.872C216.677 19.24 212.405 18.424 207.605 18.424H190.325V85.816H207.605C212.501 85.816 216.821 84.952 220.565 83.224C224.405 81.496 227.573 79.144 230.069 76.168C232.661 73.096 234.629 69.496 235.973 65.368C237.317 61.24 237.989 56.776 237.989 51.976Z" stroke="white" stroke-width="2"/>
</svg>
